X:1
T:Rejoice Today
T:Rejoice Today
T:Frank Treat Southwick
T:Henry R. Baldwin, 1903
T:Public Domain Courtesy of the Cyber Hymnal™
T:Public Domain Courtesy of the Cyber Hymnal™
C:Frank Treat Southwick
Z:Public Domain
Z:Courtesy of the Cyber Hymnal™
%%score ( 1 2 ) ( 3 4 )
L:1/8
Q:1/4=115
M:4/4
K:D
V:1 treble 
V:2 treble 
V:3 bass 
V:4 bass 
V:1
"^Alla Breve" [Fd]2 | [Ec]3 [EB] [CG]2 [Gc]2 | [FB]2 [FA]2 [DF]2 [DB]2 | [EA]3 [EG] [CF]2 [CG]2 | %4
w: 1.~Re-|joice to- day with|glad ac- cord, For|Christ, the Lord, is|
w: 2.~Be-|hold Him in a|man- ger laid: A|help- less lit- tle|
w: 3.~The|King of Heav’n— the|Prince of Life, As-|sumes a mor- tal|
w: 4.~Hail,|glor- ious Prince! Hail,|bless- èd Son! On|this Thy na- tal|
 ([DB]4 [DA]2) [Fd]2 | [Fe]2 [Fd]2 [Ec]2 [FB]2 | [EB]3 [EA] [Ec]2 [Gc]2 | [FB]2 (cd) [^Gc]2 [GB]2 | %8
w: come: * Ful-|fill- èd the pro-|phe- tic word, In|Da- vid’s * Beth- le-|
w: one; * For|whom Ju- de- a’s|mo- thers prayed; The|long ex- * pec- ted|
w: frame; * He|comes to en- ter|in- to strife, To|weave im- * mor- tal|
w: day * Let|love and peace un-|tram- meled run, O’er|all the * earth hold|
 A6 A2 | (Bc) (de) [GA]2 [FA]2 | (GA) (Bc) [Fd]2 [DA]2 | [DA]2 (GF) [EG]2 [CB]2 | %12
w: hem. For|un- * to * us a|child * is * born; To|us a * son is|
w: son. No|earth- * ly * pomp sur-|rounds * His * bed, His|home no * pil- lared|
w: fame. His|wea- * pons * truth and|right- * eous- * ness; The|cause the * good of|
w: sway, Till|hu- * man * pas- sion,|sin, * and * wrongs, Are|num- bered * with the|
 ([DB]4 [DA]2) [Fd]2 | [FA]2 [DF]2 E2 [CF]2 | [EG]2 (FE) [DA]2 D2 | (EF) (AG) [B,F]2 [CE]2 | D6 |] %17
w: given; * To|raise our fall- en|na- ture * up, And|make * us * heirs of|Heav’n.|
w: hall: * They|had not where to|lay His * head, Save|in * the * cat- tle|stall.|
w: all, * The|help- less sons of|A- dam’s * race, The|ru- * ined * by the|fall.|
w: past, * And|earth with her ten|thou- sand * tongues, Shall|praise * Thee * “First and|Last.”|
V:2
 x2 | x8 | x8 | x8 | x8 | x8 | x8 | x2 F2 x4 | A6 A2 | G2 G2 x4 | E2 G2 x4 | x2 E2 x4 | x8 | %13
 x4 E2 x2 | x2 C2 x D2 x | E2 E2 x4 | D6 |] %17
V:3
 [D,A,]2 | [A,,G,]3 [A,,G,] [A,,E,]2 [A,,A,]2 | [D,A,]2 [D,D]2 [D,A,]2 [B,,B,]2 | %3
 [E,B,]3 [E,B,] [F,A,]2 [E,G,]2 | ([D,G,]4 [D,F,]2) [B,,B,]2 | %5
 [^A,,F,]2 [B,,F,]2 [C,^A,]2 [D,B,]2 | [E,D]3 [E,C] [E,A,]2 [E,^A,]2 | %7
 [E,B,]2 [E,B,]2 [E,D]2 [E,D]2 | [A,C]6 [A,C]2 | [A,D]2 [A,D]2 [A,C]2 [A,C]2 | %10
 [A,B,]2 [A,B,]2 A,2 [F,A,]2 | [=F,A,]2 [E,D]2 [E,C]2 [A,,G,]2 | ([D,G,]4 [D,F,]2) [D,D]2 | %13
 [F,C]2 [B,D]2 [G,B,]2 [F,^A,]2 | [E,B,]2 A,2 [F,A,]2 [B,,B,]2 | %15
 [G,,B,]2 [E,,B,]2 [A,,G,]2 [A,,G,]2 | [D,,F,A,]6 |] %17
V:4
 x2 | x8 | x8 | x8 | x8 | x8 | x8 | x8 | x8 | x8 | x4 A,2 x2 | x8 | x8 | x8 | x2 (A,G,) x4 | x8 | %16
 x6 |] %17

